assets/build/img/move-option.svg

<svg width="24" height="24" viewBox="0 0 24 24" fill="none" xmlns="http://www.w3.org/2000/svg">
	<circle cx="12" cy="12" r="12" fill="#1D1D1D"/>
	<path d="M7.62512 14.625V9.375L5.00012 12L7.62512 14.625ZM16.3751 9.375V14.625L19.0001 12L16.3751 9.375ZM9.37512 7.625H14.6251L12.0001 5L9.37512 7.625ZM12.0001 19L14.6251 16.375H9.37512L12.0001 19Z" fill="white"/>
	<circle cx="12" cy="12" r="2.33333" fill="white"/>
</svg>

<svg width="24" height="24" fill="none" xmlns="http://www.w3.org/2000/svg"><circle cx="12" cy="12" r="12" fill="#1D1D1D"/><path d="M7.625 14.625v-5.25L5 12l2.625 2.625zm8.75-5.25v5.25L19 12l-2.625-2.625zm-7-1.75h5.25L12 5 9.375 7.625zM12 19l2.625-2.625h-5.25L12 19z" fill="#fff"/><circle cx="12" cy="12" r="2.333" fill="#fff"/></svg>
